X:1
T:Sligo Maid
M:C|
L:1/8
R:Reel
%%printtempo 0
Q:160
K:Ador
"Am"A2BA Bdef| gedB AGED| "G"G2BG cGBG|DEGA BAGB|
"Am"A2BA Bdef| gedB AGED| "G"B2BA G2GE| DEGA "Am"BAA2:|
|:"Am"eaag a2ga|bgaf gfed|"G"Bggf gage| dega bagf|
"Am"eaag a2ga|bgaf gfed|"G"Bgfg edef| gedB "Am"BA A2:|]
